docs/images/slice7.svg

<?xml version="1.0" encoding="UTF-8" standalone="no"?><!DOCTYPE svg PUBLIC "-//W3C//DTD SVG 1.1//EN" "http://www.w3.org/Graphics/SVG/1.1/DTD/svg11.dtd"><svg width="100%" height="100%" viewBox="0 0 113 81" version="1.1" xmlns="http://www.w3.org/2000/svg" xmlns:xlink="http://www.w3.org/1999/xlink" xml:space="preserve" xmlns:serif="http://www.serif.com/" style="fill-rule:evenodd;clip-rule:evenodd;stroke-linejoin:round;stroke-miterlimit:1.41421;"><path d="M51.159,39.535l25.896,-16.888l33.28,-21.978l-23.018,0l-48.238,31.756l-24.017,0l0,-31.756l-14.864,0l0,79.914l14.864,0l0,-34.064l23.895,0l50.106,34.064l23.737,0l-32.779,-21.978l-28.862,-19.07Z" style="fill-rule:nonzero;"/></svg>

<svg viewBox="0 0 113 81" xmlns="http://www.w3.org/2000/svg" fill-rule="evenodd" clip-rule="evenodd" stroke-linejoin="round" stroke-miterlimit="1.414"><path d="M51.159 39.535l25.896-16.888L110.335.669H87.317L39.079 32.425H15.062V.669H.198v79.914h14.864V46.519h23.895l50.106 34.064H112.8L80.021 58.605l-28.862-19.07z" fill-rule="nonzero"/></svg>
